Obsidian-SemiLight/actions/24s/mail-signed-full.svg

<svg viewBox="0 0 24 24" xmlns="http://www.w3.org/2000/svg"><path d="m2 4v1 8 6 .414062.585938h1 6 3v-1h-3-6v-.585938l.4628906-.46289 6.2675782-6.267578 1.4531252 1.451172.814453.814453h.001953l.816406-.814453 1.453125-1.451172 1.316407 1.316406h1.414062l-2.023438-2.023438 5.751954-5.7539058.222656-.2226562h.048828v.2226562 5.7773438h1v-7h-.048828-.951172-.462891-17.0742184-.4628906zm1 1h.0488281l.2226563.2226562 5.7519531 5.7539058-6.0234375 6.023438v-4-7.7773438zm1.4628906 0h15.0742184l-7.537109 7.537109z" fill="#4d4d4d"/><path d="m20 12-.996094.994141-.003906-.003907-5 4.998047.005859.00586-.005859.005859.007812.007812-.003906.992188h-.003906v.990234.009766h2l.005859-.005859.003907-.003907c.004-.00002.005765.001953.009765.001954l-.005859-.00586.986328-.986328 4-3.996094c-.0043.0025-.005466.00336-.009766.00586l.009766-.011719.998047-.998047.001953-.001953z" fill="#27ae60"/></svg>

<svg xmlns="http://www.w3.org/2000/svg" viewBox="0 0 24 24">
  <defs id="defs3051">
    <style type="text/css" id="current-color-scheme">
      .ColorScheme-Text {
        color:#4d4d4d;
      }
      .ColorScheme-PositiveText {
        color:#27ae60;
      }
      </style>
  </defs>
  <path 
     style="fill:currentColor;fill-opacity:1;stroke:none" 
     d="M 2 4 L 2 5 L 2 13 L 2 19 L 2 19.414062 L 2 20 L 3 20 L 9 20 L 12 20 L 12 19 L 9 19 L 3 19 L 3 18.414062 L 3.4628906 17.951172 L 9.7304688 11.683594 L 11.183594 13.134766 L 11.998047 13.949219 L 12 13.949219 L 12.816406 13.134766 L 14.269531 11.683594 L 15.585938 13 L 17 13 L 14.976562 10.976562 L 20.728516 5.2226562 L 20.951172 5 L 21 5 L 21 5.2226562 L 21 11 L 22 11 L 22 4 L 21.951172 4 L 21 4 L 20.537109 4 L 3.4628906 4 L 3 4 L 2 4 z M 3 5 L 3.0488281 5 L 3.2714844 5.2226562 L 9.0234375 10.976562 L 3 17 L 3 13 L 3 5.2226562 L 3 5 z M 4.4628906 5 L 19.537109 5 L 12 12.537109 L 4.4628906 5 z "
     class="ColorScheme-Text"
     />
  <path
     style="fill:currentColor;fill-opacity:1;stroke:none" 
     class="ColorScheme-PositiveText"
     d="M 20 12 L 19.003906 12.994141 L 19 12.990234 L 14 17.988281 L 14.005859 17.994141 L 14 18 L 14.007812 18.007812 L 14.003906 19 L 14 19 L 14 19.990234 L 14 20 L 16 20 L 16.005859 19.994141 L 16.009766 19.990234 C 16.013766 19.990214 16.015531 19.992187 16.019531 19.992188 L 16.013672 19.986328 L 17 19 L 21 15.003906 C 20.9957 15.006406 20.994534 15.007266 20.990234 15.009766 L 21 14.998047 L 21.998047 14 L 22 13.998047 L 20 12 z "
      />
</svg>
